static/img/pictograms/picto-startfirst-white.svg

<?xml version="1.0" encoding="utf-8"?>
<!DOCTYPE svg PUBLIC "-//W3C//DTD SVG 1.1//EN" "http://www.w3.org/Graphics/SVG/1.1/DTD/svg11.dtd">
<svg version="1.1" baseProfile="full" 
	xmlns="http://www.w3.org/2000/svg"
	xmlns:xlink="http://www.w3.org/1999/xlink"
	xmlns:ev="http://www.w3.org/2001/xml-events"
	width="160px" height="160px">
<path fill="rgb(225,225,225)" fill-rule="evenodd" d="M79.9654 -6.99411e-005 C47.4095 -6.99411e-005 19.3526 19.5453 6.86358 47.5026 C6.86358 47.5026 41.9676 47.5026 41.9676 47.5026 C40.6109 49.0872 39.3489 50.7553 38.1955 52.5022 C38.1955 52.5022 4.8082 52.5022 4.8082 52.5022 C3.61957 55.7406 2.65537 59.0837 1.88878 62.5003 C1.88878 62.5003 33.1037 62.5003 33.1037 62.5003 C32.4939 64.1301 31.9616 65.7962 31.5226 67.5012 C31.5226 67.5012 0.920434 67.5012 0.920434 67.5012 C0.405111 70.7723 0.105837 74.1121 0.0014467 77.502 C0.0014467 77.502 30.0121 77.502 30.0121 77.502 C29.9712 78.3306 29.95 79.1628 29.95 79.9996 C29.95 80.8394 29.9726 81.673 30.0121 82.5015 C30.0121 82.5015 9.04738e-006 82.5015 9.04738e-006 82.5015 C0.104479 85.8895 0.405111 89.2309 0.920434 92.5007 C0.920434 92.5007 31.5253 92.5007 31.5253 92.5007 C31.9644 94.205 32.4966 95.8718 33.1065 97.5016 C33.1065 97.5016 1.8903 97.5016 1.8903 97.5016 C2.65681 100.92 3.62236 104.264 4.81099 107.502 C4.81099 107.502 38.1998 107.502 38.1998 107.502 C39.3531 109.25 40.6166 110.919 41.9746 112.503 C41.9746 112.503 6.86781 112.503 6.86781 112.503 C19.3568 140.461 47.4123 160.001 79.9668 160.001 C124.097 160.001 160 124.111 160 79.9996 C160 35.8875 124.097 -6.99411e-005 79.9654 -6.99411e-005 Z M72.4709 45.0346 C72.4709 40.893 75.8306 37.5345 79.9739 37.5345 C84.1186 37.5345 87.4769 40.893 87.4769 45.0346 C87.4769 45.0346 87.4769 80.1843 87.4769 80.1843 C87.4769 84.3256 84.1172 87.6832 79.9739 87.6832 C75.8306 87.6832 72.4709 84.3246 72.4709 80.1843 C72.4709 80.1843 72.4709 45.0346 72.4709 45.0346 Z M106.575 106.572 C99.4874 113.657 90.0687 117.555 80.0487 117.555 C80.0473 117.555 80.0473 117.555 80.0459 117.555 C70.0245 117.555 60.6044 113.654 53.5192 106.57 C39.4519 92.5079 38.8138 69.8887 52.0653 55.0773 C54.8279 51.9886 59.5725 51.7247 62.6584 54.4862 C65.7471 57.2481 66.0125 61.9894 63.2499 65.0768 C55.3036 73.9613 55.6875 87.5278 64.1293 95.9635 C68.3813 100.215 74.0336 102.557 80.0459 102.557 C86.0582 102.557 91.7105 100.217 95.961 95.9674 C104.372 87.5588 104.78 74.0161 96.8927 65.1358 C94.1428 62.0372 94.4238 57.2959 97.521 54.5469 C100.62 51.794 105.363 52.0776 108.114 55.1746 C121.268 69.9833 120.592 92.5587 106.575 106.572 Z"/>
</svg>

<svg baseProfile="full" xmlns="http://www.w3.org/2000/svg" width="160" height="160"><path fill="#e1e1e1" fill-rule="evenodd" d="M79.965 0C47.41 0 19.353 19.545 6.865 47.503h35.103c-1.357 1.584-2.62 3.252-3.773 5H4.81c-1.188 3.238-2.153 6.58-2.92 9.997h31.216c-.61 1.63-1.142 3.296-1.58 5H.92C.405 70.773.106 74.113 0 77.503h30.012c-.04.83-.062 1.66-.062 2.498 0 .84.023 1.673.062 2.5H0c.104 3.39.405 6.73.92 10h30.605c.44 1.705.972 3.372 1.58 5.002H1.89c.767 3.418 1.732 6.762 2.92 10H38.2c1.153 1.748 2.417 3.417 3.775 5H6.868c12.49 27.96 40.544 47.5 73.1 47.5C124.097 160 160 124.11 160 80c0-44.112-35.903-80-80.035-80zM72.47 45.035c0-4.142 3.36-7.5 7.504-7.5 4.145 0 7.503 3.358 7.503 7.5v35.15c0 4.14-3.36 7.498-7.503 7.498-4.143 0-7.503-3.358-7.503-7.5V45.036zm34.105 61.537c-7.088 7.085-16.506 10.983-26.526 10.983h-.004c-10.022 0-19.442-3.9-26.527-10.985-14.068-14.062-14.706-36.68-1.455-51.493 2.763-3.088 7.508-3.352 10.593-.59 3.09 2.76 3.355 7.502.592 10.59-7.946 8.884-7.563 22.45.88 30.886 4.25 4.252 9.904 6.594 15.916 6.594 6.012 0 11.664-2.34 15.915-6.59 8.412-8.408 8.82-21.95.933-30.83-2.75-3.1-2.47-7.84.628-10.59 3.1-2.753 7.843-2.47 10.594.628 13.154 14.808 12.478 37.384-1.54 51.397z"/></svg>
